X: 37590
T: Smirnoff Gigolo, The
R: reel
M: 4/4
K: Bminor
c|B2Bd cAAc|dBcA BFFB|A2AF ABce|faea cAAc|
B2Bd cAAc|dBcA BFFB|AFED CEAc|dfec fBB:|
|:c|Bbba fBBc|dBcA BFFB|Aaaf eAAB|Aaed cAAc|
Bbba fBBc|dBcA BFFB|AFED CEAc|dfec fBB:|

